svg/black/etc.svg

<svg height="32" viewBox="0 0 32 32" width="32" xmlns="http://www.w3.org/2000/svg"><g fill="#000" fill-rule="evenodd"><path d="m16 32c-8.836556 0-16-7.163444-16-16s7.163444-16 16-16 16 7.163444 16 16-7.163444 16-16 16zm6.7318008-16.000517-6.7318008-3.8088943-6.73180076 3.8088942 6.73180076 3.7825193zm-6.7318008 5.0481116c-1.9842699-1.1227811-4.5452258-2.5692253-7-3.9513409 2.079043 3.2476938 4.6594444 7.2604917 7 10.9037463 2.3405556-3.6432548 4.920957-7.6560527 7-10.9037463-2.4547742 1.3821154-5.0157301 2.8285596-7 3.9513408zm.0000001-10.0883354 6.9999999 3.9068943-7-10.86615332-7 10.86615332 7-3.9068941z"/><g transform="translate(9 4)"><path d="m13.7092894 11.9756755-6.72076492.5770409v-4.37837842zm-6.72076493 5.0380958c1.98101698-1.1205536 4.53777453-2.5641279 6.98852453-3.9435012-2.0756347 3.2412501-4.65180597 7.2460864-6.98852453 10.8821128l.00000001-6.9386117zm.00000001-10.06831962v-6.94545168l6.98852452 10.8445944z" fill-opacity=".296" fill-rule="nonzero"/><path d="m6.989 12.553 6.72-.577-6.72 3.775z" fill-opacity=".803"/><path d="m.268 12.553 6.721-.577-6.721 3.775z" opacity=".311" transform="matrix(-1 0 0 1 7.256 0)"/></g></g></svg>

<svg xmlns="http://www.w3.org/2000/svg" width="32" height="32" viewBox="0 0 32 32">
  <g fill="none" fill-rule="evenodd">
    <path fill="#000" d="M16,32 C7.163444,32 0,24.836556 0,16 C0,7.163444 7.163444,0 16,0 C24.836556,0 32,7.163444 32,16 C32,24.836556 24.836556,32 16,32 Z M22.7318008,15.999483 L16,12.1905887 L9.26819924,15.9994829 L16,19.7820022 L22.7318008,15.999483 Z M16,21.0475946 C14.0157301,19.9248135 11.4547742,18.4783693 9,17.0962537 C11.079043,20.3439475 13.6594444,24.3567454 16,28 C18.3405556,24.3567452 20.920957,20.3439473 23,17.0962537 C20.5452258,18.4783691 17.9842699,19.9248133 16,21.0475945 Z M16.0000001,10.9592592 L23,14.8661535 L16,4.00000018 L9,14.8661535 L16,10.9592594 Z"/>
    <g fill="#000" transform="translate(9 4)">
      <path fill-opacity=".296" fill-rule="nonzero" d="M13.7092894,11.9756755 L6.98852448,12.5527164 L6.98852448,8.17433798 L13.7092894,11.9756755 Z M6.98852447,17.0137713 C8.96954145,15.8932177 11.526299,14.4496434 13.977049,13.0702701 C11.9014143,16.3115202 9.32524303,20.3163565 6.98852447,23.9523829 L6.98852448,17.0137712 Z M6.98852448,6.94545168 L6.98852448,0 L13.977049,10.8445944 L6.98852448,6.94545168 Z"/>
      <polygon fill-opacity=".803" points="6.989 12.553 13.709 11.976 6.989 15.751"/>
      <polygon points=".268 12.553 6.989 11.976 .268 15.751" opacity=".311" transform="matrix(-1 0 0 1 7.256 0)"/>
    </g>
  </g>
</svg>
